icons/glyphs/glyph-yandex-browser.svg

<?xml version="1.0" encoding="UTF-8" standalone="no"?><svg height="16" viewBox="0 0 4.2333332 4.2333332" width="16" xmlns="http://www.w3.org/2000/svg"><sodipodi:namedview/><metadata><rdf:RDF><cc:Work><dc:format>image/svg+xml</dc:format><dc:type/><dc:title/></cc:Work></rdf:RDF></metadata><path d="m .61269705.00000001-.5722317.57217778 1.67256115 1.67269601v1.9884594h.8093038v-1.9906175l1.6705376-1.67053791-.5721775-.57217778-1.5040911 1.50409109-1.50395615-1.50409109z" fill="#d0d0d0"/></svg>

<?xml version="1.0" encoding="UTF-8" standalone="no"?>
<!-- Created with Inkscape (http://www.inkscape.org/) -->

<svg
   xmlns:dc="http://purl.org/dc/elements/1.1/"
   xmlns:cc="http://creativecommons.org/ns#"
   xmlns:rdf="http://www.w3.org/1999/02/22-rdf-syntax-ns#"
   xmlns:svg="http://www.w3.org/2000/svg"
   xmlns="http://www.w3.org/2000/svg"
   xmlns:sodipodi="http://sodipodi.sourceforge.net/DTD/sodipodi-0.dtd"
   xmlns:inkscape="http://www.inkscape.org/namespaces/inkscape"
   width="16"
   height="16"
   viewBox="0 0 4.2333332 4.2333332"
   version="1.1"
   id="svg8"
   inkscape:version="0.92+devel (b8837397f6, 2017-07-27, custom)"
   sodipodi:docname="glyph-yandex-browser.svg">
  <defs
     id="defs2" />
  <sodipodi:namedview
     id="base"
     pagecolor="#002466"
     bordercolor="#ffffff"
     borderopacity="0.38039216"
     inkscape:pageopacity="1"
     inkscape:pageshadow="2"
     inkscape:zoom="36.415999"
     inkscape:cx="10.094581"
     inkscape:cy="7.9162778"
     inkscape:document-units="px"
     inkscape:current-layer="svg8"
     inkscape:document-rotation="0"
     showgrid="false"
     inkscape:showpageshadow="false"
     borderlayer="true"
     inkscape:window-width="1920"
     inkscape:window-height="1051"
     inkscape:window-x="0"
     inkscape:window-y="0"
     inkscape:window-maximized="1"
     units="px" />
  <metadata
     id="metadata5">
    <rdf:RDF>
      <cc:Work
         rdf:about="">
        <dc:format>image/svg+xml</dc:format>
        <dc:type
           rdf:resource="http://purl.org/dc/dcmitype/StillImage" />
        <dc:title></dc:title>
      </cc:Work>
    </rdf:RDF>
  </metadata>
  <path
     d="M 0.61269705,1.5e-8 0.04046535,0.57217779 1.7130265,2.2448738 V 4.2333332 H 2.5223303 V 2.2427157 L 4.1928679,0.57217779 3.6206904,1.5e-8 2.1165993,1.5040911 0.61264315,1.5e-8 Z"
     id="path26"
     inkscape:connector-curvature="0"
     inkscape:label="#"
     style="fill:#d0d0d0" />
</svg>
